src/assets/PROJECTS.svg

<svg width="320" height="170" viewBox="0 0 320 170" fill="none" xmlns="http://www.w3.org/2000/svg">
<path d="M-23 36L146.932 107.076L121.038 169.256L-48.3834 96.9565L-23 36Z" fill="#6F5577"/>
<mask id="mask0_182_4" style="mask-type:alpha" maskUnits="userSpaceOnUse" x="-9" y="27" width="329" height="98">
<path d="M-5.73429 30.6872L319.091 27.2516L302.257 124.947L-8.67431 105.28L-5.73429 30.6872Z" fill="#D3A7E0"/>
</mask>
<g mask="url(#mask0_182_4)">
<path d="M-19.1799 -6.52228L337.011 23.5101L327.52 136.076L-28.671 106.044L-19.1799 -6.52228Z" fill="#D3A7E0"/>
<path d="M293.629 60.7897L288.477 51.7517L260.591 65.7675L276.048 92.8814L303.934 78.8656L293.629 60.7897ZM280.325 79.1041L275.173 70.0662L284.2 65.529L289.352 74.5669L280.325 79.1041Z" fill="white"/>
<path d="M214.046 76.3621L222.051 69.4616C224.72 74.6564 228.459 76.832 232.771 78.0092C236.84 79.1201 239.852 77.4786 240.667 74.8522C241.416 72.4388 241.497 69.8429 236.572 67.8823C228.842 64.771 222.11 59.9301 225.546 48.8566C228.806 38.351 237.973 35.7717 244.896 37.6619C250.058 39.0712 254.989 41.6494 258.404 46.3545L251.382 53.9084C248.299 49.8327 244.28 48.3504 242.033 47.7369C237.417 46.4768 235.631 48.838 235.014 50.8255C234.045 53.9488 235.663 55.3146 242.25 58.499C248.838 61.6834 253.831 66.8196 250.726 76.8284C247.532 87.121 237.438 90.1402 229.179 87.8853C223.47 86.3268 217.849 83.6372 214.046 76.3621Z" fill="white"/>
<path d="M206.682 118.522L205.089 48.0804L182.125 48.5882L181.091 35.0038L236.063 33.7227L237.097 47.3235L217.582 47.8134L220.399 118.454L206.682 118.522Z" fill="white"/>
<path d="M172.296 84.7544L171.69 74.3273C171.157 65.1718 176.639 57.0012 188.883 56.8037C197.811 56.6596 204.365 61.0723 207.057 67.7746L197.374 71.2401C196.452 68.2003 193.609 65.8915 189.348 65.9602C184.139 66.0443 181.911 69.644 182.122 73.2681L182.822 85.2846C183.044 89.0994 185.69 92.6841 190.898 92.6001C195.092 92.5325 197.732 90.1989 198.288 86.9443L208.371 90.3454C206.474 97.3127 200.292 101.613 191.499 101.754C179.256 101.952 172.885 94.8635 172.296 84.7544Z" fill="white"/>
<path d="M144.518 102.41L143.059 51.3645L175.625 49.8415L175.914 59.9626L153.542 61.0089L153.837 71.3501L172.9 70.4586L173.179 80.213L154.116 81.1045L154.422 91.8124L176.794 90.7661L177.084 100.887L144.518 102.41Z" fill="white"/>
<path d="M116.766 106.195L124.323 96.0117C127.158 99.5201 129.988 100.904 132.144 100.782C134.916 100.624 139.098 99.0339 138.792 91.036L137.079 46.3244L148.782 45.6586L150.52 91.0447C151.174 108.101 142.823 113.694 133.354 114.233C127.041 114.592 121.119 113.094 116.766 106.195Z" fill="white"/>
<path d="M94.544 71.4396L97.0183 60.482C99.1908 50.8607 108.076 43.9389 122.411 47.155C135.716 50.1401 142.297 59.6895 139.943 70.1125L137.469 81.0701C134.964 92.1613 124.812 97.3247 111.744 94.3929C97.4096 91.1768 92.3563 81.1277 94.544 71.4396ZM124.869 79.0154L127.72 66.3875C128.641 62.3118 126.02 58.0734 120.159 56.7585C114.061 55.3904 110.365 58.4923 109.505 62.3007L106.654 74.9287C105.748 78.9375 107.739 83.3856 113.838 84.7538C119.698 86.0687 123.873 83.4252 124.869 79.0154Z" fill="white"/>
<path d="M62.4457 102.809L63.6642 40.9006L87.708 41.2072C97.2319 41.3286 105.141 48.1023 104.907 60.0214C104.761 67.4042 101.2 73.7647 94.58 76.8833L104.444 103.345L90.8612 103.171L82.745 79.1346L74.9386 79.0351L74.4676 102.962L62.4457 102.809ZM75.1802 66.7601L85.0943 66.8865C89.4659 66.9423 92.3235 64.5765 92.4146 59.9511C92.5056 55.3258 89.8101 53.423 85.7507 53.3713L75.4462 53.2399L75.1802 66.7601Z" fill="white"/>
<path d="M22.2979 101.461L23.8741 21.3713L48.4654 21.6848C61.061 21.8454 69.1776 31.8476 68.865 47.7275C68.5797 62.2265 59.1174 72.6951 47.7215 72.5498L36.0684 72.4012L35.4932 101.629L22.2979 101.461ZM36.381 56.5213L47.4342 56.6622C51.8041 56.718 55.3896 53.0805 55.5051 47.2118C55.6319 40.7678 52.6942 37.6226 47.4674 37.556L36.7569 37.4194L36.381 56.5213Z" fill="white"/>
</g>
</svg>

<svg width="320" height="170" fill="none" xmlns="http://www.w3.org/2000/svg"><path d="m-23 36 169.932 71.076-25.894 62.18-169.421-72.3L-23 36z" fill="#6F5577"/><mask id="a" style="mask-type:alpha" maskUnits="userSpaceOnUse" x="-9" y="27" width="329" height="98"><path d="m-5.734 30.687 324.825-3.435-16.834 97.695L-8.674 105.28l2.94-74.593z" fill="#D3A7E0"/></mask><g mask="url(#a)"><path d="M-19.18-6.522 337.011 23.51l-9.491 112.566-356.191-30.032L-19.18-6.522z" fill="#D3A7E0"/><path d="m293.629 60.79-5.152-9.038-27.886 14.015 15.457 27.114 27.886-14.015-10.305-18.076zm-13.304 18.314-5.152-9.038 9.027-4.537 5.152 9.038-9.027 4.537zM214.046 76.362l8.005-6.9c2.669 5.194 6.408 7.37 10.72 8.547 4.069 1.111 7.081-.53 7.896-3.157.749-2.413.83-5.01-4.095-6.97-7.73-3.111-14.462-7.952-11.026-19.025 3.26-10.506 12.427-13.085 19.35-11.195 5.162 1.41 10.093 3.987 13.508 8.693l-7.022 7.553c-3.083-4.075-7.102-5.558-9.349-6.171-4.616-1.26-6.402 1.101-7.019 3.088-.969 3.124.649 4.49 7.236 7.674 6.588 3.184 11.581 8.32 8.476 18.33-3.194 10.292-13.288 13.311-21.547 11.056-5.709-1.558-11.33-4.248-15.133-11.523z" fill="#fff"/><path d="m206.682 118.522-1.593-70.442-22.964.508-1.034-13.584 54.972-1.281 1.034 13.6-19.515.49 2.817 70.641-13.717.068z" fill="#fff"/><path d="m172.296 84.754-.606-10.427c-.533-9.155 4.949-17.326 17.193-17.523 8.928-.144 15.482 4.268 18.174 10.97l-9.683 3.466c-.922-3.04-3.765-5.349-8.026-5.28-5.209.084-7.437 3.684-7.226 7.308l.7 12.017c.222 3.814 2.868 7.4 8.076 7.315 4.194-.067 6.834-2.401 7.39-5.656l10.083 3.401c-1.897 6.968-8.079 11.268-16.872 11.409-12.243.198-18.614-6.89-19.203-17z" fill="#fff"/><path d="m144.518 102.41-1.459-51.045 32.566-1.523.289 10.12-22.372 1.047.295 10.341 19.063-.891.279 9.754-19.063.892.306 10.707 22.372-1.046.29 10.121-32.566 1.523z" fill="#fff"/><path d="m116.766 106.195 7.557-10.183c2.835 3.508 5.665 4.892 7.821 4.77 2.772-.158 6.954-1.748 6.648-9.746l-1.713-44.712 11.703-.665 1.738 45.386c.654 17.056-7.697 22.649-17.166 23.188-6.313.359-12.235-1.139-16.588-8.038z" fill="#fff"/><path d="m94.544 71.44 2.474-10.958c2.173-9.621 11.058-16.543 25.393-13.327 13.305 2.985 19.886 12.535 17.532 22.957l-2.474 10.958c-2.505 11.091-12.657 16.255-25.725 13.323-14.334-3.216-19.388-13.265-17.2-22.953zm30.325 7.575 2.851-12.627c.921-4.076-1.7-8.315-7.561-9.63-6.098-1.368-9.794 1.734-10.654 5.543l-2.851 12.628c-.906 4.008 1.085 8.457 7.184 9.825 5.86 1.315 10.035-1.329 11.031-5.739z" fill="#fff"/><path d="m62.446 102.809 1.218-61.908 24.044.306c9.524.122 17.433 6.895 17.199 18.814-.146 7.383-3.707 13.744-10.327 16.862l9.864 26.462-13.583-.174-8.116-24.036-7.806-.1-.471 23.927-12.022-.153zM75.18 66.76l9.914.126c4.372.056 7.23-2.31 7.32-6.935.092-4.625-2.604-6.528-6.663-6.58l-10.305-.131-.266 13.52z" fill="#fff"/><path d="m22.298 101.461 1.576-80.09 24.591.314c12.596.16 20.713 10.163 20.4 26.043-.285 14.498-9.748 24.967-21.143 24.822L36.067 72.4l-.575 29.228-13.195-.168zm14.083-44.94 11.053.141c4.37.056 7.956-3.581 8.071-9.45.127-6.444-2.81-9.59-8.038-9.656l-10.71-.137-.376 19.102z" fill="#fff"/></g></svg>
